icon/lg/opengl.svg

<?xml version="1.0" encoding="UTF-8"?>
<svg viewBox="0 0 512 224" version="1.1" xmlns="http://www.w3.org/2000/svg" xmlns:xlink="http://www.w3.org/1999/xlink" preserveAspectRatio="xMidYMid" height="1em" width="1em">
  <g>
    <path d="M83.962837,67.0712157 C84.1665793,66.9716564 84.3715417,66.8732943 84.5777239,66.7761299 C90.2759851,64.090034 96.9116957,62.7445007 104.482868,62.7445007 C112.051057,62.7445007 118.687265,64.090531 124.385029,66.7761299 C130.082793,69.4612317 134.849072,73.0609183 138.676908,77.5677339 C142.504744,82.0745495 145.378727,87.2558714 147.292397,93.105735 C149.206563,98.9551015 150.16638,105.044049 150.16638,111.372082 C150.16638,117.700114 149.206563,123.791547 147.292397,129.640914 C145.378727,135.490777 142.504744,140.671602 138.676908,145.179412 C134.849072,149.685731 130.082793,153.263547 124.385029,155.906399 C118.687265,158.546268 112.051057,159.870925 104.482868,159.870925 C96.9121927,159.870925 90.2759851,158.546765 84.5777239,155.906399 C83.3840106,155.352706 82.2311826,154.757976 81.1193039,154.122268 C110.811723,181.042475 167.976724,199.268158 233.622743,199.268158 C287.02058,199.268158 334.878717,188.459157 366.832025,169.469095 C331.863072,201.262351 269.488387,223.687573 198.269566,223.675644 C88.7584701,223.660732 -0.00944408255,173.571804 -2.84217094e-14,111.807007 C0.00944408255,50.0412156 88.7937612,-0.017392461 198.30436,4.53314169e-06 C269.807497,0.0109397866 332.344721,22.5077385 367.223209,54.5246695 C335.268907,35.4158111 287.216421,24.4064962 233.622743,24.4064962 C170.014198,24.4064962 114.368385,41.5183846 83.9628458,67.0712083 Z M73.3198804,125.266315 C74.5689846,129.821843 76.5303714,133.921071 79.2060291,137.564002 C81.8796986,141.208424 85.311877,144.136586 89.5040556,146.350478 C93.6927547,148.563376 98.6846979,149.667339 104.482868,149.667339 C110.278552,149.667339 115.269998,148.563376 119.462177,146.350478 C123.650876,144.136586 127.083551,141.208424 129.759706,137.564002 C132.432878,133.921071 134.393768,129.821843 135.642375,125.266315 C136.890982,120.710291 137.515783,116.090147 137.515783,111.405385 C137.515783,106.720623 136.890982,102.103957 135.642375,97.5479332 C134.393768,92.9919089 132.432381,88.8931771 129.759706,85.2472642 C127.083054,81.6048306 123.650876,78.6771651 119.462177,76.4637703 C115.269998,74.2503756 110.278055,73.1434297 104.482868,73.1434297 C98.6846979,73.1434297 93.6932518,74.2503756 89.5040556,76.4637703 C85.311877,78.6776621 81.8796986,81.6053277 79.2060291,85.2472642 C76.5298744,88.8931771 74.5689846,92.9919089 73.3198804,97.5479332 C72.0712733,102.10346 71.4499521,106.720623 71.4499521,111.405385 C71.4499521,116.090147 72.0712733,120.710291 73.3198804,125.266315 Z M168.984957,98.654879 L168.984957,106.674893 L169.185768,106.674893 C170.824068,103.391335 173.399817,101.002976 176.91401,99.5127994 C180.428203,98.0231196 184.290336,97.2780312 188.507367,97.2780312 C193.189147,97.2780312 197.267996,98.1180575 200.743916,99.7981101 C204.21735,101.478163 207.10376,103.747228 209.407122,106.607294 C211.709987,109.470839 213.445213,112.769806 214.618764,116.507674 C215.789333,120.247034 216.375861,124.21504 216.375861,128.411692 C216.375861,132.608841 215.807724,136.57635 214.677914,140.316704 C213.545121,144.056063 211.82928,147.318745 209.525918,150.102761 C207.223053,152.886777 204.333164,155.081781 200.85973,156.681807 C197.382816,158.282828 193.345223,159.085078 188.738996,159.085078 C187.254783,159.085078 185.59511,158.932481 183.762461,158.628283 C181.927327,158.31961 180.113566,157.826033 178.318693,157.1391 C176.524317,156.452167 174.823388,155.513227 173.223362,154.330728 C171.623336,153.147235 170.277305,151.678929 169.185271,149.91885 L168.98446,149.91885 L168.98446,180.47344 L158.943909,180.47344 L158.943909,98.654879 L168.984957,98.654879 Z M204.622451,119.69878 C203.881836,117.068355 202.756002,114.722743 201.237493,112.662442 C199.718487,110.602638 197.770521,108.96235 195.395086,107.742572 C193.016668,106.522297 190.234143,105.911911 187.043037,105.911911 C183.691879,105.911911 180.849707,106.562061 178.515031,107.858883 C176.177372,109.155705 174.270164,110.851166 172.788934,112.948249 C171.308202,115.045333 170.238038,117.430709 169.575958,120.101396 C168.913878,122.771089 168.584329,125.478559 168.584329,128.222313 C168.584329,131.122641 168.932269,133.925545 169.635605,136.63202 C170.334964,139.342969 171.445886,141.724369 172.964892,143.785167 C174.482904,145.845468 176.447274,147.504147 178.863468,148.761702 C181.279164,150.020747 184.200865,150.649524 187.626582,150.649524 C191.052796,150.649524 193.914353,150.002853 196.211253,148.706031 C198.508153,147.40921 200.359691,145.692872 201.761888,143.555527 C203.161601,141.421661 204.174603,138.981609 204.798906,136.234375 C205.420228,133.487141 205.733871,130.666342 205.733871,127.766512 C205.732877,125.020769 205.362569,122.332188 204.622451,119.69878 Z M267.58615,154.054364 C263.048516,157.408505 257.341805,159.085078 250.457069,159.085078 C245.60629,159.085078 241.398703,158.322593 237.840769,156.798616 C234.279356,155.272154 231.286576,153.134809 228.860938,150.387575 C226.435797,147.640838 224.616071,144.360759 223.404743,140.543859 C222.193912,136.728946 221.509962,132.568579 221.352892,128.068226 C221.352892,123.567375 222.055731,119.447269 223.467372,115.706419 C224.876032,111.966562 226.852827,108.722768 229.397759,105.975534 C231.942194,103.2283 234.957341,101.094932 238.44022,99.5679727 C241.923098,98.0415107 245.74149,97.2780312 249.892909,97.2780312 C255.295919,97.2780312 259.77639,98.3690713 263.340289,100.546181 C266.905182,102.725776 269.763259,105.497365 271.915516,108.86095 C274.06827,112.22702 275.558446,115.896791 276.380579,119.869768 C277.202711,123.846224 277.535242,127.629821 277.378669,131.223046 L231.995876,131.223046 C231.917341,133.813707 232.228002,136.269666 232.93084,138.593407 C233.633679,140.917148 234.763489,142.974467 236.325739,144.765364 C237.888486,146.555266 239.877708,147.980825 242.299867,149.047509 C244.719043,150.114691 247.568174,150.648033 250.846762,150.648033 C255.060314,150.648033 258.515357,149.695175 261.207417,147.784488 C263.899478,145.874298 265.674966,142.971485 266.534874,139.071576 L276.38704,139.071576 C275.056419,145.706292 272.123286,150.700224 267.58615,154.054364 Z M265.153553,116.07772 C264.257359,114.023384 263.049014,112.251376 261.530504,110.76766 C260.008516,109.283945 258.21414,108.103435 256.148869,107.226627 C254.081112,106.349818 251.800117,105.911414 249.305885,105.911414 C246.733118,105.911414 244.411365,106.349818 242.34659,107.226627 C240.278833,108.103435 238.506328,109.302337 237.025098,110.822834 C235.543869,112.346313 234.373797,114.118819 233.51687,116.135876 C232.657459,118.15343 232.151952,120.30519 231.995379,122.589167 L266.736182,122.589167 C266.578615,120.30519 266.051735,118.134542 265.153553,116.07772 Z M293.471386,98.654879 L293.471386,108.051741 L293.65977,108.051741 C297.81964,100.871256 304.418569,97.2780312 313.451585,97.2780312 C317.455379,97.2780312 320.792619,97.8143557 323.466289,98.8845194 C326.135982,99.954683 328.295197,101.444363 329.945427,103.35505 C331.595656,105.264743 332.753799,107.53679 333.421843,110.17318 C334.086905,112.810068 334.422916,115.732266 334.422916,118.941762 L334.422916,157.908544 L324.382862,157.908544 L324.382862,117.82239 C324.382862,114.158583 323.283869,111.258256 321.090854,109.118425 C318.894856,106.98108 315.879708,105.910917 312.041931,105.910917 C308.987019,105.910917 306.341185,106.371192 304.107411,107.287765 C301.873637,108.204835 300.012656,109.501159 298.525461,111.181212 C297.039261,112.861264 295.921877,114.826628 295.178279,117.076805 C294.4317,119.329964 294.060895,121.791887 294.060895,124.465557 L294.060895,157.907053 L284.020841,157.907053 L284.020841,98.654879 L293.471386,98.654879 Z M403.830461,157.264358 C399.296804,159.131801 394.718412,160.067263 390.100256,160.067263 C382.80843,160.067263 376.25374,158.82462 370.430717,156.347785 C364.606701,153.867968 359.697269,150.452689 355.696457,146.098967 C351.695646,141.748725 348.629798,136.635003 346.495933,130.760783 C344.363061,124.887061 343.296377,118.552567 343.296377,111.764757 C343.296377,104.805462 344.360576,98.3422302 346.487483,92.3795347 C348.615384,86.4193245 351.673775,81.2201085 355.664646,76.7803956 C359.65651,72.3406827 364.560474,68.8612839 370.380018,66.3347433 C376.200058,63.8116821 382.754748,62.5486603 390.046574,62.5486603 C394.934632,62.5486603 399.666615,63.2688959 404.243515,64.7073787 C408.821907,66.1478499 412.954439,68.2633243 416.64459,71.0533052 C420.333747,73.843286 423.377226,77.2829202 425.777018,81.3697227 C428.177803,85.4595075 429.646606,90.1502342 430.179451,95.4478674 L410.180861,95.4478674 C408.935236,90.2392074 406.534451,86.3298543 402.979499,83.7242816 C399.421565,81.1182119 395.111087,79.8154255 390.046077,79.8154255 C385.333977,79.8154255 381.333165,80.7071457 378.045133,82.4915803 C374.757101,84.2760148 372.089396,86.6708353 370.04351,89.6720654 C367.998121,92.6762777 366.510926,96.0915562 365.579938,99.9208832 C364.64398,103.75021 364.180226,107.708275 364.180226,111.79806 C364.180226,115.71636 364.646962,119.523816 365.581927,123.221423 C366.517885,126.918533 368.008062,130.24782 370.053451,133.206801 C372.098841,136.164787 374.769528,138.534754 378.063524,140.319189 C381.355533,142.103623 385.361315,142.995841 390.081368,142.995841 C397.021774,142.995841 402.380546,141.285965 406.163646,137.863727 C409.947741,134.442484 412.150698,129.481856 412.775001,122.982339 L391.709229,122.982339 L391.709229,107.677457 L431.651237,107.677457 L431.651237,157.979126 L418.360927,157.979126 L416.233027,147.426607 C412.499632,152.116836 408.364118,155.397412 403.830461,157.264358 Z M465.597743,64.9027221 L465.597743,140.641282 L512,140.641282 L512,157.90755 L444.713397,157.90755 L444.713397,64.9027221 L465.597743,64.9027221 Z" fill="#5586A4" fill-rule="nonzero"/>
  </g>
</svg>

<svg width="512" height="224" xmlns="http://www.w3.org/2000/svg" preserveAspectRatio="xMidYMid"><path d="M83.963 67.071c.204-.1.409-.198.615-.295 5.698-2.686 12.334-4.031 19.905-4.031 7.568 0 14.204 1.346 19.902 4.031 5.698 2.685 10.464 6.285 14.292 10.792 3.828 4.507 6.702 9.688 8.615 15.538 1.915 5.85 2.874 11.938 2.874 18.266 0 6.328-.96 12.42-2.874 18.269-1.913 5.85-4.787 11.03-8.615 15.538-3.828 4.507-8.594 8.085-14.292 10.727-5.698 2.64-12.334 3.965-19.902 3.965-7.57 0-14.207-1.324-19.905-3.965a45.74 45.74 0 0 1-3.459-1.784c29.693 26.92 86.858 45.146 152.504 45.146 53.398 0 101.256-10.809 133.209-29.799-34.969 31.793-97.344 54.219-168.562 54.207C88.758 223.66-.01 173.572 0 111.807.01 50.041 88.794-.017 198.304 0c71.503.01 134.04 22.508 168.92 54.525-31.955-19.11-80.008-30.119-133.601-30.119-63.609 0-119.255 17.112-149.66 42.665ZM73.32 125.266c1.249 4.556 3.21 8.655 5.886 12.298 2.674 3.644 6.106 6.573 10.298 8.786 4.189 2.213 9.18 3.317 14.979 3.317 5.796 0 10.787-1.104 14.98-3.317 4.188-2.213 7.62-5.142 10.297-8.786 2.673-3.643 4.634-7.742 5.882-12.298a52.213 52.213 0 0 0 0-27.718c-1.248-4.556-3.21-8.655-5.882-12.3-2.677-3.643-6.11-6.57-10.298-8.784-4.192-2.214-9.184-3.32-14.98-3.32-5.797 0-10.789 1.106-14.978 3.32-4.192 2.214-7.624 5.141-10.298 8.783-2.676 3.646-4.637 7.745-5.886 12.3a52.18 52.18 0 0 0-1.87 13.858c0 4.685.621 9.305 1.87 13.861Zm95.665-26.611v8.02h.2c1.64-3.284 4.215-5.672 7.729-7.162 3.514-1.49 7.376-2.235 11.593-2.235 4.682 0 8.761.84 12.237 2.52 3.473 1.68 6.36 3.95 8.663 6.81 2.303 2.863 4.038 6.162 5.212 9.9 1.17 3.739 1.757 7.707 1.757 11.904s-.568 8.164-1.698 11.905c-1.133 3.74-2.849 7.002-5.152 9.786s-5.193 4.979-8.666 6.579c-3.477 1.6-7.515 2.403-12.121 2.403-1.484 0-3.144-.153-4.977-.457a28.346 28.346 0 0 1-5.443-1.489 21.474 21.474 0 0 1-5.096-2.808 15.748 15.748 0 0 1-4.038-4.412h-.2v30.554h-10.041V98.655h10.041Zm35.637 21.044c-.74-2.63-1.866-4.976-3.385-7.037-1.519-2.06-3.466-3.7-5.842-4.92-2.378-1.22-5.16-1.83-8.352-1.83-3.351 0-6.193.65-8.528 1.947-2.338 1.297-4.245 2.992-5.726 5.09-1.48 2.096-2.551 4.482-3.213 7.152a33.616 33.616 0 0 0-.992 8.121c0 2.9.348 5.704 1.052 8.41.699 2.711 1.81 5.092 3.329 7.153 1.518 2.06 3.482 3.72 5.898 4.977 2.416 1.259 5.338 1.888 8.764 1.888 3.426 0 6.287-.647 8.584-1.944 2.297-1.297 4.149-3.013 5.55-5.15 1.4-2.134 2.414-4.574 3.038-7.322.621-2.747.935-5.568.935-8.467a29.714 29.714 0 0 0-1.112-8.068Zm62.964 34.355c-4.537 3.355-10.244 5.031-17.129 5.031-4.85 0-9.058-.762-12.616-2.286-3.562-1.527-6.554-3.664-8.98-6.411-2.425-2.747-4.245-6.027-5.456-9.844-1.211-3.815-1.895-7.975-2.052-12.476 0-4.5.703-8.62 2.114-12.362 1.409-3.74 3.386-6.983 5.93-9.73 2.545-2.748 5.56-4.881 9.043-6.408 3.483-1.526 7.301-2.29 11.453-2.29 5.403 0 9.883 1.091 13.447 3.268 3.565 2.18 6.423 4.951 8.576 8.315a32.47 32.47 0 0 1 4.465 11.009c.822 3.976 1.154 7.76.998 11.353h-45.383c-.079 2.59.232 5.047.935 7.37.703 2.324 1.832 4.381 3.395 6.172 1.562 1.79 3.552 3.216 5.974 4.283 2.419 1.067 5.268 1.6 8.547 1.6 4.213 0 7.668-.953 10.36-2.864 2.692-1.91 4.468-4.813 5.328-8.712h9.852c-1.33 6.634-4.264 11.628-8.8 14.982Zm-2.432-37.976c-.897-2.055-2.105-3.827-3.623-5.31-1.522-1.484-3.317-2.665-5.382-3.541-2.068-.877-4.349-1.316-6.843-1.316-2.573 0-4.895.439-6.96 1.316-2.067.876-3.84 2.075-5.32 3.596a17.188 17.188 0 0 0-3.51 5.313c-.859 2.017-1.364 4.17-1.52 6.453h34.74a19.5 19.5 0 0 0-1.582-6.511Zm28.317-17.423v9.397h.189c4.16-7.18 10.759-10.774 19.792-10.774 4.003 0 7.34.536 10.014 1.607 2.67 1.07 4.83 2.56 6.48 4.47 1.65 1.91 2.808 4.182 3.476 6.818.665 2.637 1 5.56 1 8.769v38.967h-10.04v-40.087c0-3.663-1.098-6.564-3.291-8.704-2.196-2.137-5.211-3.207-9.05-3.207-3.054 0-5.7.46-7.934 1.377-2.233.917-4.094 2.213-5.582 3.893-1.486 1.68-2.603 3.646-3.347 5.896-.746 2.253-1.117 4.715-1.117 7.389v33.441h-10.04V98.655h9.45Zm110.36 58.61c-4.534 1.867-9.113 2.802-13.73 2.802-7.293 0-13.847-1.242-19.67-3.72-5.824-2.479-10.734-5.894-14.735-10.248-4-4.35-7.066-9.464-9.2-15.338-2.133-5.874-3.2-12.208-3.2-18.996 0-6.96 1.065-13.423 3.191-19.385 2.128-5.96 5.187-11.16 9.178-15.6 3.992-4.44 8.895-7.919 14.715-10.445 5.82-2.523 12.375-3.786 19.667-3.786 4.888 0 9.62.72 14.197 2.158 4.578 1.44 8.71 3.556 12.4 6.346 3.69 2.79 6.733 6.23 9.133 10.317 2.4 4.09 3.87 8.78 4.402 14.078h-19.998c-1.246-5.209-3.647-9.118-7.202-11.724-3.557-2.606-7.868-3.909-12.933-3.909-4.712 0-8.713.892-12 2.677-3.289 1.784-5.957 4.179-8.002 7.18-2.046 3.004-3.533 6.42-4.464 10.249-.936 3.83-1.4 7.787-1.4 11.877 0 3.918.467 7.726 1.402 11.423.936 3.698 2.426 7.027 4.471 9.986 2.046 2.958 4.717 5.328 8.01 7.112 3.293 1.785 7.298 2.677 12.018 2.677 6.94 0 12.3-1.71 16.083-5.132 3.784-3.422 5.987-8.382 6.611-14.882h-21.066v-15.305h39.942v50.302h-13.29l-2.128-10.552c-3.733 4.69-7.869 7.97-12.403 9.837Zm61.767-92.362v75.738H512v17.267h-67.287V64.903h20.885Z" fill="#5586A4"/></svg>
